dbg/src/shared/assets/icons/sun.svg

<svg width="64" height="64" viewBox="0 0 64 64" fill="none" xmlns="http://www.w3.org/2000/svg">
<g clip-path="url(#clip0_4_444)">
<path d="M31.9999 42.6667C37.891 42.6667 42.6666 37.891 42.6666 32C42.6666 26.109 37.891 21.3333 31.9999 21.3333C26.1089 21.3333 21.3333 26.109 21.3333 32C21.3333 37.891 26.1089 42.6667 31.9999 42.6667Z" stroke="white" stroke-width="3" stroke-linecap="round" stroke-linejoin="round"/>
<path d="M16.8 47.2L14.9333 49.0667M8 32H10.6667H8ZM32 8V10.6667V8ZM53.3333 32H56H53.3333ZM32 53.3333V56V53.3333ZM14.9333 14.9333L16.8 16.8L14.9333 14.9333ZM49.0667 14.9333L47.2 16.8L49.0667 14.9333ZM47.2 47.2L49.0667 49.0667L47.2 47.2Z" stroke="white" stroke-width="3" stroke-linecap="round" stroke-linejoin="round"/>
</g>
<defs>
<clipPath id="clip0_4_444">
<rect width="64" height="64" fill="white"/>
</clipPath>
</defs>
</svg>

<svg xmlns="http://www.w3.org/2000/svg" width="64" height="64" fill="none"><g stroke="#fff" stroke-linecap="round" stroke-linejoin="round" stroke-width="3" clip-path="url(#a)"><path d="M32 42.667c5.891 0 10.667-4.776 10.667-10.667S37.89 21.333 32 21.333 21.333 26.11 21.333 32 26.11 42.667 32 42.667ZM16.8 47.2l-1.867 1.867M8 32h2.667H8ZM32 8v2.667V8Zm21.333 24H56h-2.667ZM32 53.333V56v-2.667Zm-17.067-38.4L16.8 16.8l-1.867-1.867Zm34.134 0L47.2 16.8l1.867-1.867ZM47.2 47.2l1.867 1.867L47.2 47.2Z"/></g><defs><clipPath id="a"><path fill="#fff" d="M0 0h64v64H0z"/></clipPath></defs></svg>
